X:1
T:Alleluia, the Bridegroom Cometh
T:Words: Orthodox Troparion for Matins first days of Holy Week, Translated by Nigel Williams
T:Music: Russian anonymous
%%score [ 1 2 ( 3 4 ) ( 5 6 7 ) ]
L:1/8
M:6/2
K:D
V:1 treble nm="Soprano" snm=" "
V:2 treble nm="Alto"
V:3 treble-8 nm="Tenor"
V:4 treble-8 
V:5 bass nm="Bass"
V:6 bass 
V:7 bass 
V:1
 z4 | z16 x8 | x4 z8 x4 | z16 x8 :|[M:6/2] z4 | z24 | z20 | z24 | %8
w: ||||||||
[M:6/2][Q:1/4=120][Q:1/4=120][Q:1/4=120][Q:1/4=120] z8 | z24 | z24 |[M:6/2] z8 | z24 | z24 | %14
w: ||||||
[M:6/2] z4 | z24 | z24 |[M:6/2] z8 | z8 | z24 |[M:6/2]!p! (c4 d4) | e4 e4{e} e4 e4 f4 | %22
w: ||||||Lest *|un- to thou be a-|
 (d8 c2 e2 d2 c2) B8 | z2 f2 | (f8 g8) x8 | e4 f4 x16 | (d8 c2 e2 d2 c2) B8 ||!p!!<(! (c4 d4) | %28
w: ban * * * * doned|and|barred *|from the|king * * * * dom.|But *|
 e4 e4 e4 e4 f4 | (d8 c2 e2!<)! d2 c2) B8 |!f! (f8 g8) e4 | e4 e4 e4 e4 f4 | (d8 c2 e2 d2) c2 B8 | %33
w: stir thy- self, e- ver|cry * * * * ing:|Ho * ly,|ho- ly, ho- ly art|Thou * * * O God.|
!mp! c4 d4 | e4 e4 e4 e4 e4 e4 | e4 e4 f4 |"^rit. e dim." (d8 c2 e2 d2) c2 B8 |] %37
w: And with|Ma- ry The- o- to- kos,|Ky- rie e-|le * * * i- son.|
V:2
 z4 | z16 x8 | x4 z8 x4 | z16 x8 :|[M:6/2] z4 | z24 | z20 | z24 |[M:6/2] z8 | z24 | z24 | %11
[M:6/2] z8 | z24 | z24 |[M:6/2] z4 | z24 | z24 |[M:6/2] z8 | z8 | z24 |[M:6/2] (E4 F4) | %21
 G4 G4{G} G4 G4 A4 | (F8 E2 G2 F2 E2) D8 | z2 A2 | (A8 B8) x8 | G4 A4 x16 | F8 E2 G2 F2 E2 D8 || %27
 (E4 F4) | G4 G4 G4 G4 A4 | (F8 E2 G2 F2 E2) D8 | (A8 B8) G4 | G4 G4 G4 G4 A4 | %32
 (F8 E2 G2 F2) E2 D8 | E4 F4 | G4 G4 G4 G4 G4 G4 | G4 G4 A4 | (F8 E2 G2 F2) E2 D8 |] %37
V:3
 d2 e2 | (f8 g8){e} e4 e4 | e4 e4 e4 f4 | (d8 c2 e2 d2 c2) B8 :|!p! d2 e2 | (f8 g8) e4 e4 | %6
 e4 e4 e4 e4 f4 | (d8 c2 e2 d2 c2) B8 | c4 d4 | e4 e4 e4{eee} e4 e4 f4 | (d8 c2 e2 d2) c2 B8 | %11
 c4 d4 | e4 e4 e4{ee} e4 e4 f4 | (d8 c2 e2 d2) c2 B8 | z2!mp! f2 | (f8 g8) e4 f4 | %16
 (d8 c2 e2 d2) c2 B8 | c4 d4 | e4 f4 | (d8 c2 e2 d2) c2 B8 |!p! (c4 d4) | e4 e4{e} e4 e4 f4 | %22
 (d8 c2 e2 d2 c2) B8 | z2 f2 | (f8 g8) x8 | e4 f4 x16 | (d8 c2 e2 d2 c2) B8 ||!p!!<(! (c4 d4) | %28
 e4 e4 e4 e4 f4 | (d8 c2 e2 d2 c2)!<)! B8 |!f! (f8 g8) e4 | e4 e4 e4 e4 f4 | (d8 c2 e2 d2) c2 B8 | %33
!mp! c4 d4 | e4 e4 e4 e4 e4 e4 | e4 e4 f4 | (d8"^rit. e dim." c2 e2 d2) c2 B8 |] %37
V:4
 d2 d2 | d8- d8{c} c4 c4 | c4 c4 c4 A4 | (A8- A6 ^A2) F8 :| d2 d2 | d8- d8 c4 c4 | c4 c4 c4 c4 A4 | %7
w: A- lle-|lu * a- lle-|lu- ia, a- lle-|lu * * ia.|In the|dead * of night,|hi- ther co- meth the|
 (A8- A6 ^A2) F8 | A4 A4 | c4 c4 c4{ccc} c4 c4 A4 | A8- A6 ^A2 F8 | A4 A4 | c4 c4 c4{cc} c4 c4 A4 | %13
w: bride * * groom.|And the|ser\- vant that wa- tchful shall|bless * ed be.|But he|shall not find the ser- vant|
 A8- A6 ^A2 F8 | z2 d2 | d8- d8 c4 A4 | A8- A6 ^A2 F8 | A4 A4 | c4 A4 | A8- A6 ^A2 F8 | A8 | %21
w: slum * ber- ing.|A-|wake * O my|soul * there- fore.|Let not|sleep en-|cum * ber thee.|Lest|
 c4 c4{c} c4 c4 A4 | (A8- A6 ^A2) F8 | z2 d2 | d8- d8 x8 | c4 A4 x16 | (A8- A6 ^A2) F8 || A8 | %28
w: un- to thou be a-|ban * * doned|and|barred *|from the|king * * dom.|But|
 c4 c4 c4 c4 A4 | (A8- A6 ^A2) F8 | d8- d8 c4 | c4 c4 c4 c4 A4 | A8- A6 ^A2 F8 | A4 A4 | %34
w: stir thy- self, e- ver|cry * * ing:|Ho * ly,|ho- ly, ho- ly art|Thou * O God.|And with|
 c4 c4 c4 c4 c4 c4 | c4 c4 A4 | A8- A6 ^A2 F8 |] %37
w: Ma- ry The- o- to- kos,|Ky- rie e-|le * i- son.|
V:5
!pp! F,2 G,2 | (A,8 B,8){G,} G,4 G,4 | G,4 G,4 G,4 A,4 | (F,8 E,2 G,2 F,2 E,2) D,8 :| F,2 G,2 | %5
 (A,8 B,8) G,4 G,4 | G,4 G,4 G,4 G,4 A,4 | (F,8 E,2 G,2 F,2 E,2) D,8 | E,4 F,4 | %9
 G,4 G,4 G,4{G,G,G,} G,4 G,4 A,4 | (F,8 E,2 G,2 F,2) E,2 D,8 | E,4 F,4 | %12
 G,4 G,4 G,4{G,G,} G,4 G,4 A,4 | (F,8 E,2 G,2 F,2) E,2 D,8 | z2 A,2 | (A,8 B,8) G,4 A,4 | %16
 (F,8 E,2 G,2 F,2) E,2 D,8 | E,4 F,4 | G,4 A,4 | (F,8 E,2 G,2 F,2) E,2 D,8 | (E,4 F,4) | %21
 G,4 G,4{G,} G,4 G,4 A,4 | (F,8 E,2 G,2 F,2 E,2) D,8 | z2 A,2 | (A,8 B,8) x8 | G,4 A,4 x16 | %26
 (F,8 E,2 G,2 F,2 E,2) D,8 || (E,4 F,4) | G,4 G,4 G,4 G,4 A,4 | (F,8 E,2 G,2 F,2 E,2) D,8 | %30
 (A,8 B,8) G,4 | G,4 G,4 G,4 G,4 A,4 | (F,8 E,2 G,2 F,2) E,2 D,8 | E,4 F,4 | %34
 G,4 G,4 G,4 G,4 G,4 G,4 | G,4 G,4 A,4 | (F,8 E,2 G,2 F,2) E,2 D,8 |] %37
V:6
 D,2 D,2 | (D,8 G,,8){A,,} A,,4 A,,4 | A,,4 A,,4 A,,4 A,,4 | (D,8 A,,6 F,,2) B,,8 :| D,2 D,2 | %5
 (D,8 G,,8) A,,4 A,,4 | A,,4 A,,4 A,,4 A,,4 A,,4 | (D,8 A,,6 F,,2) B,,8 | A,,4 A,,4 | %9
 A,,4 A,,4 A,,4{A,,A,,A,,} A,,4 A,,4 A,,4 | (D,8 A,,6) F,,2 B,,8 | A,,4 A,,4 | %12
 A,,4 A,,4 A,,4{A,,A,,} A,,4 A,,4 A,,4 | (D,8 A,,6) F,,2 B,,8 | z2 D,2 | (D,8 G,,8) A,,4 A,,4 | %16
 D,8 A,,6 F,,2 B,,8 | A,,4 A,,4 | A,,4 A,,4 | D,8 A,,6 F,,2 B,,8 | A,,8 | %21
 A,,4 A,,4{A,,} A,,4 A,,4 A,,4 | D,8 A,,6 F,,2 B,,8 | z2 D,2 | (D,8 G,,8) x8 | A,,4 A,,4 x16 | %26
 (D,8 A,,6 F,,2) B,,8 || A,,8 | A,,4 A,,4 A,,4 A,,4 A,,4 | (D,8 A,,6 F,,2) B,,8 | (D,8 G,,8) A,,4 | %31
 A,,4 A,,4 A,,4 A,,4 A,,4 | (D,8 A,,6) F,,2 B,,8 | A,,4 A,,4 | A,,4 A,,4 A,,4 A,,4 A,,4 A,,4 | %35
 A,,4 A,,4 A,,4 | D,8 A,,4 D,2 F,,2 B,,8 |] %37
V:7
 x4 | x24 | x16 | x24 :| x4 | x24 | x20 | x24 | x8 | x24 | x24 | x8 | x24 | x24 | x2 x2 | %15
 x4 x4 x4 x4 x4 x4 | (D,,8 x6) x2 x4 x4 | x4 x4 | A,,,4 A,,,4 | ((D,,8 A,,,6)) x2 x4 x4 | A,,8 | %21
 x4 x4 x4 x4 x4 | D,,8 x6 x2 x4 x4 | x4 | D,,8 (G,,,8 A,,,4) A,,,4 | D,,8 A,,,6 x2 x4 x4 | x24 || %27
 A,,8 | x4 x4 x4 x4 x4 | D,,8 x6 x2 x4 x4 | (D,,8 G,,,8) A,,,4 | A,,,4 A,,,4 A,,,4 A,,,4 A,,,4 | %32
 D,,8 A,,,6 F,,2 B,,8 | A,,4 A,,4 | A,,,4 A,,,4 A,,,4 A,,,4 A,,,4 A,,,4 | A,,,4 A,,,4 A,,,4 | %36
 (D,,8 A,,,4 D,,2) F,,2 B,,8 |] %37

